!!!OTL: Die Sonne ist verblichen. / (Tagelied.)
!!!ARE: Europa, Mitteleuropa, Deutschland
!!!SCT: A0116A
!!!TXL: @@GMH
!!!YEM: Copyright 1995, estate of Helmut Schaffrath.
**kern	**text
!! Mixed meters:  4/2; 6/2
*M4/2	*
*met(c|)	*
*clefC4	*
*k[b-]	*
*G:dor	*
!LO:TX:a:t=dor. tr	!
2ryy	.
{2G	'Die
=1	=1
2G	ſonn
2d	die
2f	iſt
2e	ver-
=2	=2
1d	-bli-
2A/}	-chen,
{2A/	die
=3	=3
1G	ſtern
2A	ſeint
*lig	*
2.d	auf-
=4	=4
.	.
4c	.
4B-	.
4A	.
*Xlig	*
2B-	.
2B-	-ge-
=5	=5
1A	-gang,
2r}	.
{2G	Die
=6	=6
2G	nacht
2d	die
2f	kummt
2e	.
=7	=7
1d	geſchlichen,
2A/}	.
{2A/	fraw
=8	=8
1G	nach-
2A	-ti-
*lig	*
2.d	-gal
=9	=9
.	.
4c	.
4B-	.
4A	mit
*Xlig	*
2B-	i-
2B-	-rem
=10	=10
1G	gſang,
2r}	.
{2c	Der
=11	=11
2c	mon
2c	iſt
2c	auf-
2B-	-ge-
=12	=12
*M6/2	*
1A	-gan-
1G}	-gen,'
{1B-	redt
=13	=13
*M4/2	*
1A	ſich
2F	ein
2.G	wech-
=14	=14
.	.
4F	.
4E	.
4D	.
2E	.
2E	-ter
=15	=15
0D}	gut,
=16	=16
{2r	.
2G	'vnd
2G	wel-
2A	-cher
=17	=17
2B-	hat
2c	ver-
1A	-lan-
=18	=18
1G}	-gen
{1d	vnd
=19	=19
*M6/2	*
1f	iſt
2e	mit
1d	lieb
2c	vmb-
=20	=20
*M4/2	*
2.d	-fan-
4c	.
4B-	.
4A	.
1B-	.
=21-	=21-
.	.
4A/	.
4G	.
2F}	-gen,
{2F	der
=22	=22
2G	mach
2B-	ſich
2A	bald
*lig	*
2.c	auf
=23	=23
.	.
4B-	.
4A/	.
4G	.
2A/	.
*Xlig	*
2A/	die
=24	=24
1G/ll}	fart.
==	==
!!!GTL: Tage- oder Wächterlieder
!!!AGN: Romanze, Ballade, Lied
!! Forster III 1549 No. 42.
!!!ONB: ESAC (Essen Associative Code) Database: ALTDEU
!!!AMT: irregular
!!!AIN: vox
!!!EED: Helmut Schaffrath
!!!EEV: 1.0
!!!RDF**kern: l = terminal long
!!!AMD: Dorian
!!!URL-scan: https://rosdok.uni-rostock.de/mcrviewer/recordIdentifier/rosdok_ppn738218359/iview2/phys_0287.iview2?x=-2091.770685579196&y=77.12624114053324&scale=0.2411630558722919&rotation=0&layout=singlePageLayout&logicalDiv=log_0008
!!!ENC: Anna Maria Matuszewska
!!!EEV: 2024/23/02
*-	*-
